!!!OTL: WILLST DU FREI UND LUSTIG GEHN
!!!ARE: Europa, Mitteleuropa, Deutschland
!!!SCT: B0306
!!!YEM: Copyright 1995, estate of Helmut Schaffrath.
**kern
*ICvox
*Ivox
*M4/4
*k[f#]
*G:
=1
{4.b
8cc
4dd
8.dd
16b
=2
4ee
8.ee
16cc
2dd}
=3
{4.b
8dd
16cc
8.b
16a
8.g
=4
2a
4d
4r}
=5
{4.b
8cc
4dd
8.dd
16b
=6
4ee
8.ee
16cc
2dd}
=7
{4.b
8dd
16cc
8.b
16a
8.g
=8
2a
4d
4r}
=9
{4a
8.a
16f#
4b
8.b
16g
=10
4cc
8.cc
16b
2a}
=11
{4.b
8cc
4dd
8.dd
16cc
=12
2b
4a
4r}
=13
{4.b
8cc
4dd
8.dd
16b
=14
4ee
8.ee
16cc
2dd}
=15
{4.gg
8dd
16cc
8.b
16a
8.g
=16
2a
4g
4r}
==
!!!AGN: Stimmungs - Lied, Freude
!!!ONB: ESAC (Essen Associative Code) Database: BOEHME
!!!AMT: simple quadruple
!!!AIN: vox
!!!EED: Helmut Schaffrath
!!!EEV: 1.0
*-
